X:388
T:Banbury Bill
O:england
M:4/4
C:
S:Bacon (Jour 1956)
N:
A:Bampton
R:Reel
%P:A.(AB$^3$)$^3$.A
P:A.(AB3)3.A
K:D
I:speed 400
P:A
D2 E2 F2 D2 | G2 A2 B4        | E2 F2 G2 AG | F2 G2 A4    |\
A2 D2 F2 A2 | d2 e2 f3 g/2a/2 | g2 e2 B2 c2 | d4    d4    ||\
P:B
d2 e2 f2 d2 | c2 d2 e4        | B2 c2 d2 ed | c2 B2 A2 Bc |\
d2 D2 D4    | F2 G2 A4        | Bc d2 cd e2 | d4    d4    ||


